X:1
T:Prélude
T:Prélude
T: 
T:Suite in D Minor  N°7
T:Elisabeth Jacquet de la Guerre
C:Elisabeth Jacquet de la Garde
%%score { ( 1 2 ) | ( 3 4 ) }
L:1/8
Q:1/2=120
M:4/2
K:C
V:1 treble nm="Piano" snm="Pno."
V:2 treble 
V:3 bass 
V:4 bass 
V:1
 x16 dcA{A} _B8 c_B^F MG8- =FEB,{B,} ^C8 GGFE[Q:3/4=150] A,8 D8 F8 x8 x2 D8 F8 A8 x8 x2 D8 F8 A8 x8 x2 B,8 E8 G8 x8 x2 G8 E8 ^C8 A,8 | %1
 x8 x2 A,8 D8 F8 x8 x2 A,8 D8 F8 A, ^G,8 B,8 E8 D8 x8 E,8 A,8 ^C8 x8 AG A,8 C8 ^F8 x8 x2 D8 G8 _B8 x8 x2 | %2
 x8 _B8 G8 E8 x4 x c_B E F8 A8 D8 dc x8 F8 B8 A2 x16 E8 ^G8 x16 E8 A8 x16 x2 D8 =B8 | %3
[M:4/4] x16 c2 x16 x8 E8 B8 d8 c2 B2 x16 E8 (B c8) x8 x2 x D8 B8 z8 x2 d8 D8 E8 ^G8 B8 D C8 E8 A8 x2 x z4 x x2 x C8 F8 A8 x2 x | %4
 x8 B,8 D8 E8 ^G8 x8 x2 x D ^C8 E8 A8 ^cMde A8 d8 f8 x8 x2 x G8 dMef G8 d8 g8 x8 x2 x A8 gfe A8 d8 f8 | %5
[M:2/2][Q:3/4=80] x8 x[Q:3/4=150] G8 x16[Q:3/4=80][Q:3/4=150][Q:3/4=150][Q:3/4=80] fefgagfedc_BAG z8 ^FMGA[Q:3/4=150] C8 G8 _B8[Q:3/4=80] x16 x4 x C8 =F8 A8 | %6
[Q:3/4=80] x16 x4[Q:3/4=120] CDE F8 CDA,{A,} _B,8 C =B,8 D8 F8 G | %7
[M:2/2][Q:1/4=100]"_Mouvement" PEG A_B/A/ GA Bc/B/ | Ac d_e/d/ cd ef/e/ | dfga [g_b]aga | %10
 ^f2 d_e/d/ cd/c/ _Bc | Ad PB2 c_edf | [c_e]dMcd PBPcdPB | [Gc]ePf!turn!g aeMfd | [eg]4 [cf]4 | %15
 [_Bd]4 [Gc]4 | [FAc]4 [Ac]2 [G_B]2 | [FA-]4 A^FMGA | _BEF=B, z G PFE | F2 ^F2 G4 | A6 G2- | %21
 GEAG F4 | z F EF GFED | P^CEA^c AePcA | eeg_b z a2 g | %25
[Q:3/4=120] A8 d8 f8 G8 e8 F8 d8 E8 G2 A8 ^c8 A8 G8 E8 z8 z16 PF8 A8 d8 x32 PF8 A8 d8 [FAd]8 |] %26
V:2
 x203 D x17 | x211 | x74 c x40 A x31 ^G x42 |[M:4/4] x243 | x195 |[M:2/2] x126 | x68 | %7
[M:2/2] CE FG/F/ EF GA/G/ | FA _Bc/_B/ A_B cd/c/ | _Bde^f dc_Bc | AA _Bc/B/ AB/A/ GA | ^F2 x4 _B2 | %12
 G2 x6 | E x7 | c4 A4 | F4 E4 | C4 D2 D2 | D4 x4 | x4 ^C4 | [A,D]4 D4 | z C DA, _B,4 | x4 [A,D]4 | %22
 x4 [_B,D]4 | x8 | x4 f2 e2 | x218 |] %26
V:3
 D,,8 D,8 x32 x4 x x16 x8 A,G, F,8 x16 x8 D,C, _B,,8 x16 x8 G,,F,, E,,8 x16 x8 E,,D,, MA,,8 x32 | %1
 F,,E,, D,,8 x16 x8 D,,C,,{C,,} B,,,8 x32 x16 x8 x A,,,8 x16 x8 MA,,8 x16 x8 x2 _B,,A,, G,,8 x16 x8 E,D,{D,} ^C,8 | %2
{D,} ^C,8 x16 x8 F,8 x16 x8 x2 D,8 x8 x4 D2 C2 x2 D,8 B,8 x16 C,8 E,8 x16 ^F,2 B,,8 ^G,8 x16 | %3
[M:4/4] A,,8 A,8 x2 ^G,,8 E,8 B,8 x16 x8 x4 A,,8 A,8 x16 x G,,F,,E,, MF,,8 x16 D,,2{D,,} E,,8 x32 x32 x D,C,E, D,8 x16 x8 E,D,F, | %4
 E,8 x32 E,D,E, A,,8 x32 x16 x4 A,B,C PB,8 x32 x2 x B,^CD PC8 x32 x2 x | %5
[M:2/2] D,E,F,G,A,B,C D2 x8 PB,,8 C,8 x8 x4 x E,,8 z16 x8 x2 x D,,E,,D,,E,,F,,E,,D,,C,,B,,,C,,D,,E,,F,,{G,,} A,,8 x16 x8 | %6
 _B,,A,,_B,,C,_B,,A,,G,,F,,G,,A,,_B,,C, MD,8 x32 x16 |[M:2/2] C,4- C,4 | z4 F,4 | %9
 _B,,2 _B,A, G,A,B,G, | D8 | D2 GF P_ECGG, | C_B,_A,F, G,_E,F,G, | C,8 | z C DE FCDA, | %15
 _B,G,A,B, CG,A,E, | F,C,D,A,, _B,,A,,B,,G,, | z A, B,^C DA,_B,^F, | G,4 [E,G,]4 | %19
 D,C,D,A,, _B,,A,,B,,E,, | ^F,,4 z D, E,B,, | P^C,4 z A,, D,=C, | D,4 z D, G,F, | E,2 z2 z4 | z8 | %25
 A,,,8- x32 x8 M[A,,,A,,]8 x32 x8 x2 x4 D,,8 F,,8 A,,8 D,8 x4 x8 x8 D,,8 F,,8 A,,8 D,8 x16 x8 [D,,F,,A,,D,]8 |] %26
V:4
 x221 | x211 | x99 C x58 A, x31 |[M:4/4] x243 | x195 |[M:2/2] x16 x4 x A,,B,, x103 | x68 | %7
[M:2/2] z4 C,,4 | F,,4- F,,4 | x8 | x8 | x8 | x8 | x8 | x8 | x8 | x8 | D,8 | D,4- D,4 | x8 | %20
 x4 G,,4 | A,,4 z4 | _B,,3 A,, G,,4 | A,,8- | A,,8 | x218 |] %26

